Newaita/actions/22/format-font-size-more.svg

<?xml version="1.0" encoding="UTF-8"?>
<svg xmlns="http://www.w3.org/2000/svg" xmlns:xlink="http://www.w3.org/1999/xlink" width="22pt" height="22pt" viewBox="0 0 22 22" version="1.1">
<g id="surface1">
<path style=" stroke:none;fill-rule:evenodd;fill:rgb(25.882354%,64.705884%,96.078432%);fill-opacity:1;" d="M 11.824219 11.085938 L 19.101562 6.539062 L 20.921875 8.359375 L 20.921875 1.082031 L 13.644531 1.082031 L 15.464844 2.902344 L 10.914062 10.175781 Z M 11.824219 11.085938 "/>
<path style=" stroke:none;fill-rule:nonzero;fill:rgb(25.882354%,64.705884%,96.078432%);fill-opacity:1;" d="M 5.230469 11.996094 C 4.0625 11.996094 3.019531 12.539062 2.3125 13.398438 C 1.589844 14.496094 2.957031 15.40625 3.609375 14.695312 C 3.984375 14.160156 4.570312 13.816406 5.230469 13.816406 C 6.363281 13.816406 7.277344 14.828125 7.277344 16.089844 L 7.25 16.089844 C 7.265625 16.164062 7.277344 16.238281 7.277344 16.316406 L 7.277344 16.722656 C 6.675781 16.328125 5.878906 16.089844 5.003906 16.089844 C 3.113281 16.089844 1.589844 17.207031 1.589844 18.589844 C 1.589844 19.976562 3.113281 21.09375 5.003906 21.09375 C 5.894531 21.09375 6.707031 20.84375 7.3125 20.433594 C 7.421875 20.816406 7.769531 21.09375 8.1875 21.09375 C 8.589844 21.09375 8.929688 20.832031 9.050781 20.46875 C 9.0625 20.476562 9.078125 20.480469 9.09375 20.484375 C 9.09375 20.460938 9.097656 20.433594 9.097656 20.410156 C 9.097656 20.375 9.09375 20.339844 9.085938 20.304688 C 9.089844 20.285156 9.09375 20.265625 9.09375 20.246094 C 9.09375 20.246094 9.09375 20.242188 9.09375 20.242188 C 9.09375 20.234375 9.09375 20.226562 9.09375 20.21875 C 9.09375 20.214844 9.09375 20.214844 9.09375 20.210938 C 9.097656 20.203125 9.097656 20.191406 9.097656 20.183594 L 9.097656 16.089844 C 9.097656 13.820312 7.371094 11.996094 5.230469 11.996094 Z M 5.230469 17.910156 L 5.457031 17.910156 C 6.339844 17.910156 7.050781 18.203125 7.050781 18.566406 L 7.050781 18.617188 C 7.050781 18.980469 6.339844 19.273438 5.457031 19.273438 L 5.230469 19.273438 C 4.347656 19.273438 3.636719 18.980469 3.636719 18.617188 L 3.636719 18.566406 C 3.636719 18.203125 4.347656 17.910156 5.230469 17.910156 Z M 5.230469 17.910156 "/>
<path style=" stroke:none;fill-rule:nonzero;fill:rgb(25.882354%,25.882354%,25.882354%);fill-opacity:1;" d="M 2.273438 1.082031 C 1.519531 1.082031 0.910156 1.691406 0.910156 2.445312 L 0.910156 11.085938 L 2.273438 11.085938 L 2.273438 3.808594 C 2.273438 3.304688 2.679688 2.902344 3.183594 2.902344 L 8.1875 2.902344 L 8.1875 1.082031 Z M 19.554688 13.816406 L 19.554688 18.820312 C 19.554688 19.324219 19.152344 19.726562 18.648438 19.726562 L 10.914062 19.726562 L 10.914062 21.09375 L 19.554688 21.09375 C 20.3125 21.09375 20.921875 20.484375 20.921875 19.726562 L 20.921875 13.816406 Z M 19.554688 13.816406 "/>
</g>
</svg>

<svg xmlns="http://www.w3.org/2000/svg" width="22pt" height="22pt" viewBox="0 0 22 22"><path d="M11.824 11.086l7.278-4.547 1.82 1.82V1.082h-7.277l1.82 1.82-4.55 7.274zm0 0" fill-rule="evenodd" fill="#78909c"/><path d="M5.23 11.996c-1.168 0-2.21.543-2.918 1.402-.722 1.098.645 2.008 1.297 1.297.375-.535.961-.879 1.621-.879 1.133 0 2.047 1.012 2.047 2.274H7.25c.016.074.027.148.027.226v.407c-.601-.395-1.398-.633-2.273-.633-1.89 0-3.414 1.117-3.414 2.5 0 1.387 1.523 2.504 3.414 2.504.89 0 1.703-.25 2.309-.66a.91.91 0 1 0 1.738.035.14.14 0 0 0 .043.015c0-.023.004-.05.004-.074a.485.485 0 0 0-.012-.105c.004-.02.008-.04.008-.059v-.004-.023-.008c.004-.008.004-.02.004-.027V16.09c0-2.27-1.727-4.094-3.868-4.094zm0 5.914h.227c.883 0 1.594.293 1.594.656v.051c0 .363-.711.656-1.594.656H5.23c-.882 0-1.593-.293-1.593-.656v-.05c0-.364.71-.657 1.593-.657zm0 0" fill="#78909c"/><path d="M2.273 1.082c-.753 0-1.363.61-1.363 1.363v8.64h1.363V3.81c0-.504.407-.907.91-.907h5.005v-1.82zm17.282 12.734v5.004a.902.902 0 0 1-.907.907h-7.734v1.367h8.64c.759 0 1.368-.61 1.368-1.367v-5.91zm0 0" fill="#424242"/></svg>
